icons/sad_fill.svg

<svg width="48" height="48" viewBox="0 0 48 48" fill="none" xmlns="http://www.w3.org/2000/svg">
<path d="M13.7428 20.3501C13.6237 21.0878 14.1242 21.7953 14.8073 22.2328C15.521 22.6899 16.5386 22.9399 17.737 22.7629C18.983 22.579 19.8685 21.8877 20.3905 21.0975C20.8948 20.3341 21.1024 19.4046 20.8707 18.7158C20.8163 18.554 20.6831 18.4311 20.5174 18.39C20.3517 18.3488 20.1764 18.3951 20.0526 18.5126C18.2567 20.2174 16.2287 20.6361 14.4105 19.9611C14.2702 19.909 14.114 19.9225 13.9847 19.9978C13.8554 20.0731 13.7667 20.2024 13.7428 20.3501Z" fill="black"/>
<path d="M33.8187 20.3501C33.9377 21.0878 33.4373 21.7953 32.7542 22.2328C32.0404 22.6899 31.0229 22.9399 29.8244 22.7629C28.5785 22.579 27.693 21.8877 27.171 21.0975C26.6666 20.3341 26.459 19.4046 26.6907 18.7158C26.7452 18.554 26.8784 18.4311 27.0441 18.39C27.2098 18.3488 27.3851 18.3951 27.5089 18.5126C29.3048 20.2174 31.3327 20.6361 33.151 19.9611C33.2913 19.909 33.4475 19.9225 33.5768 19.9978C33.7061 20.0731 33.7948 20.2024 33.8187 20.3501Z" fill="black"/>
<path d="M33.2581 31C31.5382 27.4383 28.0381 25 24 25C19.9619 25 16.4618 27.4383 14.7419 31C14.273 31.9709 15.0582 33 16.1363 33L31.8637 33C32.9418 33 33.727 31.9709 33.2581 31Z" fill="black"/>
<path fill-rule="evenodd" clip-rule="evenodd" d="M24 42C33.9411 42 42 33.9411 42 24C42 14.0589 33.9411 6 24 6C14.0589 6 6 14.0589 6 24C6 33.9411 14.0589 42 24 42ZM24 40C32.8366 40 40 32.8366 40 24C40 15.1634 32.8366 8 24 8C15.1634 8 8 15.1634 8 24C8 32.8366 15.1634 40 24 40Z" fill="black"/>
</svg>

<svg
  xmlns="http://www.w3.org/2000/svg"
  width="24"
  height="24"
  viewBox="0 0 24 24"
  fill="none"
  stroke="currentColor"
  stroke-width="2"
  stroke-linecap="round"
  stroke-linejoin="round"
>
  <path d="M13.743 20.35c-.12.738.381 1.445 1.064 1.883.714.457 1.732.707 2.93.53a3.8 3.8 0 0 0 2.654-1.666c.504-.763.711-1.692.48-2.381a.5.5 0 0 0-.818-.203c-1.796 1.704-3.824 2.123-5.642 1.448a.5.5 0 0 0-.668.39" />
  <path d="M33.819 20.35c.119.738-.382 1.445-1.065 1.883-.714.457-1.731.707-2.93.53a3.8 3.8 0 0 1-2.653-1.666c-.504-.763-.712-1.692-.48-2.381a.5.5 0 0 1 .818-.203c1.796 1.704 3.824 2.123 5.642 1.448a.5.5 0 0 1 .668.39" />
  <path d="M33.258 31c-1.72-3.562-5.22-6-9.258-6s-7.538 2.438-9.258 6c-.469.97.316 2 1.394 2h15.728c1.078 0 1.863-1.03 1.394-2" />
  <path
    fill-rule="evenodd"
    d="M24 42c9.941 0 18-8.059 18-18S33.941 6 24 6 6 14.059 6 24s8.059 18 18 18m0-2c8.837 0 16-7.163 16-16S32.837 8 24 8 8 15.163 8 24s7.163 16 16 16"
    clip-rule="evenodd"
  />
</svg>
